logos/envoy-icon.svg

<?xml version="1.0" encoding="UTF-8"?>
<svg width="256px" height="191px" viewBox="0 0 256 191" version="1.1" xmlns="http://www.w3.org/2000/svg" xmlns:xlink="http://www.w3.org/1999/xlink" preserveAspectRatio="xMidYMid">
    <title>envoy</title>
    <g>
        <path d="M63.8336201,92.173719 L64.1737287,107.591975 L80.3855719,117.681864 L80.0454633,102.263607 L63.8336201,92.173719 Z M103.399587,156.227505 L103.059478,141.149357 L88.8882868,132.306534 C88.6615477,132.193164 88.4348087,131.966425 88.3214391,131.853055 L88.6615477,147.044573 L103.399587,156.227505 L103.399587,156.227505 Z M52.7234059,176.520651 L15.6515687,153.620006 L14.7446124,115.074365 L32.8837377,107.251867 L32.5436291,91.8336104 L3.52102868,104.304259 C1.25363802,105.324585 -0.106796368,107.365236 0.0065731644,109.745997 L1.14026849,156.000766 C1.14026849,158.381526 2.61407242,160.762286 4.9948326,162.122721 L49.549059,189.671517 C51.5897105,190.918582 54.0838403,191.258691 56.2378614,190.691843 C56.4646005,190.578473 56.6913395,190.578473 56.9180786,190.465104 L84.240136,178.674672 L69.3887272,169.49174 L52.7234059,176.520651 L52.7234059,176.520651 Z" fill="#B31AAB"></path>
        <path d="M172.668371,91.2667627 C172.555002,88.5458939 170.967828,85.7116556 168.24696,84.1244821 L114.169693,50.68047 L112.46915,51.3606872 L112.809258,67.5725304 L155.549572,94.101001 L156.569898,137.408163 L172.895111,147.498051 L173.802067,147.157942 L172.668371,91.2667627 Z M107.934368,167.451089 L57.8250348,136.274467 L56.57797,84.1244821 L79.4786156,74.2613328 L79.0251375,56.2355771 L43.4271042,71.540464 C40.8196049,72.6741593 39.2324315,75.0549195 39.345801,77.8891578 L40.8196049,139.108705 C40.8196049,141.942944 42.5201479,144.663813 45.2410167,146.250986 L104.079804,182.755976 C106.460564,184.22978 109.408172,184.683258 111.902302,183.889671 C112.129041,183.776301 112.35578,183.662932 112.582519,183.662932 L147.386966,168.698154 L130.154797,158.041417 L107.934368,167.451089 L107.934368,167.451089 Z" fill="#D163CE"></path>
        <path d="M249.192806,48.4130793 L173.688697,1.70483185 C170.854459,0.00428885965 167.566743,-0.449189271 164.732504,0.45776699 C164.505765,0.571136523 164.165657,0.684506056 163.938917,0.797875589 L90.3620907,32.5413447 C87.4144829,33.7884096 85.6005704,36.5092784 85.7139399,39.7969948 L87.5278524,118.248711 C87.641222,121.423058 89.568504,124.597405 92.6294814,126.411318 L168.020221,173.119565 C170.741089,174.820108 174.142175,175.273586 176.976414,174.36663 C177.203153,174.253261 177.543261,174.139891 177.77,174.026522 L251.346827,142.283052 C254.294435,141.035988 256.108348,138.201749 255.994978,135.027402 L254.181066,56.5756857 C254.181066,53.4013388 252.253783,50.3403614 249.192806,48.4130793 Z M172.555002,155.547288 L107.027412,114.960995 L105.326869,46.7125363 L169.267286,19.1637399 L234.794875,59.7500326 L236.382049,127.885122 L172.555002,155.547288 L172.555002,155.547288 Z" fill="#E13EAF"></path>
    </g>
</svg>

<svg width="256" height="191" xmlns="http://www.w3.org/2000/svg" preserveAspectRatio="xMidYMid">
	<path d="m63.834 92.174.34 15.418 16.212 10.09-.34-15.418-16.212-10.09Zm39.566 64.054-.34-15.079-14.172-8.842c-.226-.114-.453-.34-.567-.454l.34 15.192 14.739 9.183ZM52.723 176.52 15.652 153.62l-.907-38.546 18.139-7.822-.34-15.418-29.023 12.47c-2.267 1.02-3.628 3.061-3.514 5.442l1.133 46.255c0 2.38 1.474 4.761 3.855 6.122l44.554 27.549c2.04 1.247 4.535 1.587 6.689 1.02.227-.114.453-.114.68-.227l27.322-11.79-14.851-9.183-16.666 7.029Z" fill="#B31AAB"/>
	<path d="M172.668 91.267c-.113-2.721-1.7-5.555-4.421-7.143L114.17 50.68l-1.7.68.34 16.213L155.55 94.1l1.02 43.307 16.325 10.09.907-.34-1.134-55.891Zm-64.734 76.184-50.109-31.177-1.247-52.15 22.9-9.863-.453-18.025L43.427 71.54c-2.607 1.134-4.195 3.515-4.081 6.35l1.474 61.219c0 2.834 1.7 5.555 4.421 7.142l58.839 36.505c2.38 1.474 5.328 1.927 7.822 1.134.227-.114.454-.227.68-.227l34.805-14.965-17.232-10.657-22.22 9.41Z" fill="#D163CE"/>
	<path d="M249.193 48.413 173.689 1.705c-2.835-1.7-6.122-2.154-8.956-1.247-.227.113-.567.227-.794.34L90.362 32.54c-2.948 1.247-4.761 3.968-4.648 7.256l1.814 78.452c.113 3.174 2.04 6.348 5.101 8.162l75.391 46.709c2.721 1.7 6.122 2.154 8.956 1.247.227-.114.567-.227.794-.34l73.577-31.744c2.947-1.247 4.761-4.081 4.648-7.256l-1.814-78.451c0-3.175-1.927-6.236-4.988-8.163Zm-76.638 107.134-65.528-40.586-1.7-68.248 63.94-27.55 65.528 40.587 1.587 68.135-63.827 27.662Z" fill="#E13EAF"/>
</svg>
